X: 203
T: the Devils Hobby Horse
%R: reel
Z: 2017 John Chambers <jc:trillian.mit.edu>
B: John Treat - "Gamut for the Fifes", 1779, p.10 #3
F: https://archive.org/details/GamutFortheFifes
M: C|
L: 1/8
K: D
% - - - - - - - - - - - - - - - - - - - - - - - - -
D |\
DEFG ABcA | dcdA BAGF | GFED DEFG | BAGF E2E2 |\
DEFG ABcA | dcdA BAGF | afdf gece | d2d2 d2 :|
|: f2 |\
fefg agfe | dcde fedc | BABc GFED | A2A2 A3f |\
fefg agfe | dcdA GFED | afdf gece | d2d2 d2 :|
% - - - - - - - - - - - - - - - - - - - - - - - - -
